svg/blobs-icons/no-decorations/gingerbread-man.svg

<svg xmlns="http://www.w3.org/2000/svg" xmlns:xlink="http://www.w3.org/1999/xlink" preserveAspectRatio="xMidYMid" width="166" height="216" viewBox="0 0 166 216"><defs><style>.cls-3{fill:#fbb713}.cls-4{fill:#010100;opacity:.25}.cls-5{fill:#3e66a5}.cls-8{fill:#ff3a2f}.cls-12{fill:#142a3b}</style></defs><g id="group-1svg"><path d="M134.563 51.983c0 28.718-23.273 51.989-51.981 51.989-28.71.0-51.983-23.271-51.983-51.989C30.599 23.277 53.872.005 82.582.005c28.708.0 51.981 23.272 51.981 51.978z" id="path-1" class="cls-3" fill-rule="evenodd"/><path d="M82.582 98.419c-27.796.0-50.429-21.833-51.845-49.283C30.689 50.036 30.599 50.927 30.599 51.84c0 28.715 23.273 51.987 51.983 51.987 28.708.0 51.981-23.272 51.981-51.987C134.563 50.927 134.473 50.036 134.425 49.136 133.009 76.586 110.376 98.419 82.582 98.419z" id="path-2" class="cls-4" fill-rule="evenodd"/><path d="M154.191 112.569s-38.665 20.221-38.665 20.221C105.123 138.177 92.32 134.116 86.929 123.708 86.583 123.042 86.282 122.364 86.01 121.682 84.972 121.865 83.91 121.976 82.825 121.976 81.732 121.976 80.673 121.865 79.632 121.679 79.363 122.364 79.059 123.042 78.713 123.708 73.323 134.116 60.516 138.177 50.113 132.79L11.452 112.569C5.044 109.249 1.057 103.119.186 96.474-.9 105.047 3.328 113.767 11.452 117.977l38.661 20.221C60.516 143.587 73.323 139.524 78.713 129.116 79.059 128.451 79.363 127.773 79.632 127.088 80.673 127.273 81.732 127.384 82.825 127.384 83.91 127.384 84.972 127.273 86.01 127.09 86.282 127.773 86.583 128.451 86.929 129.116 92.32 139.524 105.123 143.587 115.526 138.198l38.665-20.221C162.312 113.767 166.542 105.043 165.457 96.469 164.585 103.119 160.595 109.249 154.191 112.569z" id="path-3" class="cls-5" fill-rule="evenodd"/><path d="M118.449 136.678s35.742-18.693 35.742-18.693C164.597 112.592 168.655 99.789 163.267 89.384 157.88 78.982 145.071 74.916 134.665 80.308L98.069 99.451C94.839 94.442 89.224 91.12 82.825 91.12 76.421 91.12 70.803 94.442 67.578 99.454L30.98 80.308C20.571 74.916 7.766 78.982 2.377 89.384c-5.392 10.405-1.333 23.208 9.075 28.601l35.742 18.694s-37.321 41.59-37.321 41.59C1.618 187.415 2.335 201.526 11.487 209.787 20.635 218.045 34.746 217.325 43.002 208.175c0 0 27.461-34.139 39.823-34.139 12.36.0 39.822 34.139 39.822 34.139C130.903 217.325 145.01 218.045 154.159 209.787 163.31 201.526 164.029 187.415 155.772 178.269l-37.323-41.591z" id="path-4" class="cls-3" fill-rule="evenodd"/><path d="M154.159 204.37C145.01 212.628 130.902 211.906 122.647 202.759c0 0-27.462-34.14-39.822-34.14-12.362.0-39.823 34.14-39.823 34.14C34.745 211.906 20.635 212.628 11.487 204.37 7.324 200.612 4.926 195.644 4.305 190.484 3.453 197.453 5.877 204.713 11.487 209.777 20.635 218.036 34.745 217.315 43.002 208.167c0 0 27.461-34.14 39.823-34.14 12.36.0 39.822 34.14 39.822 34.14C130.902 217.315 145.01 218.036 154.159 209.777 159.768 204.713 162.192 197.453 161.34 190.484 160.719 195.644 158.321 200.612 154.159 204.37z" id="path-5" class="cls-4" fill-rule="evenodd"/><path d="M49.802 200.186c1.328-1.494 2.81-3.126 4.384-4.815-10.413-18.699-26.648-24.076-36.752-25.532l-5.044 5.618C20.138 175.718 38.91 178.684 49.802 200.186z" id="path-6" class="cls-8" fill-rule="evenodd"/><path d="M115.846 200.189c10.891-21.5 29.656-24.476 37.407-24.738L148.214 169.839C138.11 171.295 121.878 176.672 111.462 195.371 113.033 197.06 114.517 198.692 115.846 200.189z" id="path-7" class="cls-8" fill-rule="evenodd"/><path d="M38.427 84.194C37.87 92.458 34.228 109.354 14.779 119.717l6.424 3.357c16.97-10.664 21.746-26.285 23.001-35.859l-5.777-3.021z" id="path-8" class="cls-8" fill-rule="evenodd"/><path d="M127.221 84.192S121.445 87.213 121.445 87.213C122.696 96.786 127.469 112.407 144.44 123.074L150.865 119.715c-19.448-10.363-23.09-27.26-23.644-35.523z" id="path-9" class="cls-8" fill-rule="evenodd"/><path d="M67.27 50.649C67.27 54.04 64.517 56.79 61.127 56.79 57.733 56.79 54.984 54.04 54.984 50.649c0-3.396 2.749-6.142 6.143-6.142C64.517 44.507 67.27 47.253 67.27 50.649z" id="path-10" class="cls-12" fill-rule="evenodd"/><path d="M108.245 50.649C108.245 54.04 105.493 56.79 102.102 56.79 98.711 56.79 95.959 54.04 95.959 50.649c0-3.396 2.752-6.142 6.143-6.142 3.39099999999999.0 6.143 2.746 6.143 6.142z" id="path-11" class="cls-12" fill-rule="evenodd"/><path d="M88.218 122.879C88.218 125.963 85.717 128.462 82.635 128.462 79.55 128.462 77.055 125.963 77.055 122.879 77.055 119.797 79.55 117.296 82.635 117.296 85.717 117.296 88.218 119.797 88.218 122.879z" id="path-12" class="cls-12" fill-rule="evenodd"/><path d="M88.218 143.367C88.218 146.452 85.717 148.947 82.635 148.947 79.55 148.947 77.055 146.452 77.055 143.367 77.055 140.285 79.55 137.784 82.635 137.784c3.08199999999999.0 5.583 2.501 5.583 5.583z" id="path-13" class="cls-12" fill-rule="evenodd"/><path d="M82.58 76.932c-8.756.0-15.122-6.259-15.389-6.526C65.991 69.207 65.991 67.258 67.191 66.059 68.392 64.861 70.331 64.861 71.532 66.052 71.646 66.162 76.457 70.789 82.58 70.789c6.163.0 11.002-4.693 11.05-4.737C94.837 64.865 96.78 64.868 97.971 66.072 99.165 67.272 99.165 69.207 97.966 70.406 97.702 70.673 91.334 76.932 82.58 76.932z" id="path-14" class="cls-12" fill-rule="evenodd"/></g></svg>

<svg xmlns="http://www.w3.org/2000/svg" xmlns:xlink="http://www.w3.org/1999/xlink" preserveAspectRatio="xMidYMid" width="166" height="216" viewBox="0 0 166 216">
  <defs>
    <style>

      .cls-3 {
        fill: #fbb713;
      }

      .cls-4 {
        fill: #010100;
        opacity: 0.25;
      }

      .cls-5 {
        fill: #3e66a5;
      }

      .cls-8 {
        fill: #ff3a2f;
      }

      .cls-12 {
        fill: #142a3b;
      }
    </style>
  </defs>
  <g id="group-1svg">
    <path d="M134.563,51.983 C134.563,80.701 111.290,103.972 82.582,103.972 C53.872,103.972 30.599,80.701 30.599,51.983 C30.599,23.277 53.872,0.005 82.582,0.005 C111.290,0.005 134.563,23.277 134.563,51.983 Z" id="path-1" class="cls-3" fill-rule="evenodd"/>
    <path d="M82.582,98.419 C54.786,98.419 32.153,76.586 30.737,49.136 C30.689,50.036 30.599,50.927 30.599,51.840 C30.599,80.555 53.872,103.827 82.582,103.827 C111.290,103.827 134.563,80.555 134.563,51.840 C134.563,50.927 134.473,50.036 134.425,49.136 C133.009,76.586 110.376,98.419 82.582,98.419 Z" id="path-2" class="cls-4" fill-rule="evenodd"/>
    <path d="M154.191,112.569 C154.191,112.569 115.526,132.790 115.526,132.790 C105.123,138.177 92.320,134.116 86.929,123.708 C86.583,123.042 86.282,122.364 86.010,121.682 C84.972,121.865 83.910,121.976 82.825,121.976 C81.732,121.976 80.673,121.865 79.632,121.679 C79.363,122.364 79.059,123.042 78.713,123.708 C73.323,134.116 60.516,138.177 50.113,132.790 C50.113,132.790 11.452,112.569 11.452,112.569 C5.044,109.249 1.057,103.119 0.186,96.474 C-0.900,105.047 3.328,113.767 11.452,117.977 C11.452,117.977 50.113,138.198 50.113,138.198 C60.516,143.587 73.323,139.524 78.713,129.116 C79.059,128.451 79.363,127.773 79.632,127.088 C80.673,127.273 81.732,127.384 82.825,127.384 C83.910,127.384 84.972,127.273 86.010,127.090 C86.282,127.773 86.583,128.451 86.929,129.116 C92.320,139.524 105.123,143.587 115.526,138.198 C115.526,138.198 154.191,117.977 154.191,117.977 C162.312,113.767 166.542,105.043 165.457,96.469 C164.585,103.119 160.595,109.249 154.191,112.569 Z" id="path-3" class="cls-5" fill-rule="evenodd"/>
    <path d="M118.449,136.678 C118.449,136.678 154.191,117.985 154.191,117.985 C164.597,112.592 168.655,99.789 163.267,89.384 C157.880,78.982 145.071,74.916 134.665,80.308 C134.665,80.308 98.069,99.451 98.069,99.451 C94.839,94.442 89.224,91.120 82.825,91.120 C76.421,91.120 70.803,94.442 67.578,99.454 C67.578,99.454 30.980,80.308 30.980,80.308 C20.571,74.916 7.766,78.982 2.377,89.384 C-3.015,99.789 1.044,112.592 11.452,117.985 C11.452,117.985 47.194,136.679 47.194,136.679 C47.194,136.679 9.873,178.269 9.873,178.269 C1.618,187.415 2.335,201.526 11.487,209.787 C20.635,218.045 34.746,217.325 43.002,208.175 C43.002,208.175 70.463,174.036 82.825,174.036 C95.185,174.036 122.647,208.175 122.647,208.175 C130.903,217.325 145.010,218.045 154.159,209.787 C163.310,201.526 164.029,187.415 155.772,178.269 C155.772,178.269 118.449,136.678 118.449,136.678 Z" id="path-4" class="cls-3" fill-rule="evenodd"/>
    <path d="M154.159,204.370 C145.010,212.628 130.902,211.906 122.647,202.759 C122.647,202.759 95.185,168.619 82.825,168.619 C70.463,168.619 43.002,202.759 43.002,202.759 C34.745,211.906 20.635,212.628 11.487,204.370 C7.324,200.612 4.926,195.644 4.305,190.484 C3.453,197.453 5.877,204.713 11.487,209.777 C20.635,218.036 34.745,217.315 43.002,208.167 C43.002,208.167 70.463,174.027 82.825,174.027 C95.185,174.027 122.647,208.167 122.647,208.167 C130.902,217.315 145.010,218.036 154.159,209.777 C159.768,204.713 162.192,197.453 161.340,190.484 C160.719,195.644 158.321,200.612 154.159,204.370 Z" id="path-5" class="cls-4" fill-rule="evenodd"/>
    <path d="M49.802,200.186 C51.130,198.692 52.612,197.060 54.186,195.371 C43.773,176.672 27.538,171.295 17.434,169.839 C17.434,169.839 12.390,175.457 12.390,175.457 C20.138,175.718 38.910,178.684 49.802,200.186 Z" id="path-6" class="cls-8" fill-rule="evenodd"/>
    <path d="M115.846,200.189 C126.737,178.689 145.502,175.713 153.253,175.451 C153.253,175.451 148.214,169.839 148.214,169.839 C138.110,171.295 121.878,176.672 111.462,195.371 C113.033,197.060 114.517,198.692 115.846,200.189 Z" id="path-7" class="cls-8" fill-rule="evenodd"/>
    <path d="M38.427,84.194 C37.870,92.458 34.228,109.354 14.779,119.717 C14.779,119.717 21.203,123.074 21.203,123.074 C38.173,112.410 42.949,96.789 44.204,87.215 C44.204,87.215 38.427,84.194 38.427,84.194 Z" id="path-8" class="cls-8" fill-rule="evenodd"/>
    <path d="M127.221,84.192 C127.221,84.192 121.445,87.213 121.445,87.213 C122.696,96.786 127.469,112.407 144.440,123.074 C144.440,123.074 150.865,119.715 150.865,119.715 C131.417,109.352 127.775,92.455 127.221,84.192 Z" id="path-9" class="cls-8" fill-rule="evenodd"/>
    <path d="M67.270,50.649 C67.270,54.040 64.517,56.790 61.127,56.790 C57.733,56.790 54.984,54.040 54.984,50.649 C54.984,47.253 57.733,44.507 61.127,44.507 C64.517,44.507 67.270,47.253 67.270,50.649 Z" id="path-10" class="cls-12" fill-rule="evenodd"/>
    <path d="M108.245,50.649 C108.245,54.040 105.493,56.790 102.102,56.790 C98.711,56.790 95.959,54.040 95.959,50.649 C95.959,47.253 98.711,44.507 102.102,44.507 C105.493,44.507 108.245,47.253 108.245,50.649 Z" id="path-11" class="cls-12" fill-rule="evenodd"/>
    <path d="M88.218,122.879 C88.218,125.963 85.717,128.462 82.635,128.462 C79.550,128.462 77.055,125.963 77.055,122.879 C77.055,119.797 79.550,117.296 82.635,117.296 C85.717,117.296 88.218,119.797 88.218,122.879 Z" id="path-12" class="cls-12" fill-rule="evenodd"/>
    <path d="M88.218,143.367 C88.218,146.452 85.717,148.947 82.635,148.947 C79.550,148.947 77.055,146.452 77.055,143.367 C77.055,140.285 79.550,137.784 82.635,137.784 C85.717,137.784 88.218,140.285 88.218,143.367 Z" id="path-13" class="cls-12" fill-rule="evenodd"/>
    <path d="M82.580,76.932 C73.824,76.932 67.458,70.673 67.191,70.406 C65.991,69.207 65.991,67.258 67.191,66.059 C68.392,64.861 70.331,64.861 71.532,66.052 C71.646,66.162 76.457,70.789 82.580,70.789 C88.743,70.789 93.582,66.096 93.630,66.052 C94.837,64.865 96.780,64.868 97.971,66.072 C99.165,67.272 99.165,69.207 97.966,70.406 C97.702,70.673 91.334,76.932 82.580,76.932 Z" id="path-14" class="cls-12" fill-rule="evenodd"/>
  </g>
</svg>
